X:8
%%scale .7
T:Carraigaholt/ Woman of the House/O'Rourke's
T:Humours of carraigaholt
M:C|
L:1/8
K:D
||:"D"dcAF "G"G2 AG |"F#m"F2 DE "Bm"FGAB |"F"=cAAF "G"G2 FG |"D"Adde fdec |
"etc"dcAF GBAG |F2 DE FGAB |=cAAF G2 FG |Addc d3 e :||:
"D/A"fdde fdgf |"A/C#"edcd efge |"Bm/B"f3 d fdgf |"A/A"edcd e3 g |
"etc"fdde fdgf |edcd efge |"Bm"agfa "A"gfec |"G"Addc d3 e :||
T:The Woman of the House
M:C|
L:1/8
K:G
GE||:DBBA B2 BA|GABd eBdB |A/B/A GB A2 B/c/d|eBB2 eBdB|
GBBA B2BA|GA B/c/d eBdB |GABG A/B/A GA|BGAG EGD2:||:
f3d edBd|edge dABd|f3d edBd|eaag eaa2|
f3d edBd|g3e dcBA|GABG A/B/A GA|BGAG EGD2:||
T:O'Rourke's
M:4/4
K:D
||:ed |cAAe fded |cAeA dfed |cAAe fded |fa ge d2 :||
ef |g2 fg e3 f |gefd ea a2 |gefd edcd |eage d2 ef |
g2 fg e2 ef |gefd ea a2 |bgaf gfed |eaaf gfed ||

